X:131
T:Go To The Devil And Shake Yourself
S:American Veteran Fifer, #131
C:Donated by W.E. Miller Co.K.15th O.V.V.I.
M:6/8
L:1/8
Q:1/8=280
K:D 
%%MIDI program 72
%%MIDI transpose 8
%%MIDI ratio 3 1
Add dcB | ABA AFA | Add d2e | fec B2A |
Add dcB | ABA AFA | dfd ege | fdd d3 :|
|: afd dcd | BGG G3 | bge ede | cAA A3 |
Add dcB | ABA AFA | dfd ege | fdd d3 :|


